src/static/logos/graylog.svg

<svg width="256" height="248" xmlns="http://www.w3.org/2000/svg" preserveAspectRatio="xMidYMid"><path d="M146.302 72.728a3.727 3.727 0 00-3.51 3.092s-12.032 77.699-13.275 77.699c-1.242 0-13.672-58.383-13.672-58.383a3.72 3.72 0 00-7.036-.632l-12.426 28.649h-7.089c-1.466-3.062-4.567-5.192-8.189-5.192a9.106 9.106 0 000 18.21c3.777 0 7.015-2.3 8.394-5.575h9.326a3.72 3.72 0 003.413-2.241s8.044-20.572 8.923-20.572c.879 0 15.303 65.344 15.303 65.344a3.72 3.72 0 003.622 2.873c1.884-.055 3.37-1.349 3.67-3.094 0 0 12.394-78.806 13.464-78.806 1.07 0 13.503 51.764 13.503 51.764a3.72 3.72 0 003.41 2.776 3.734 3.734 0 003.678-2.41l9.836-26.282 6.559 10.069c.561-4.691.437-9.437-.333-14.233l-3.932-6.154a3.717 3.717 0 00-3.529-1.717 3.732 3.732 0 00-3.106 2.399l-8.347 22.302-14.895-57.106a3.737 3.737 0 00-3.608-2.783c-.051 0-.103.001-.154.003z" fill="#8D8E92"/><path d="M128 208.31c-46.23 0-83.707-37.691-83.707-84.184C44.293 77.632 81.77 39.94 128 39.94s83.707 37.69 83.707 84.185c0 46.493-37.477 84.184-83.707 84.184M128 .535C57.307.535 0 55.932 0 124.268 0 192.603 57.307 248 128 248s128-55.397 128-123.732C256 55.932 198.693.535 128 .535" fill="#C4222F"/></svg>

<?xml version="1.0" encoding="UTF-8" standalone="no"?>
<svg width="256px" height="248px" viewBox="0 0 256 248" version="1.1" xmlns="http://www.w3.org/2000/svg" xmlns:xlink="http://www.w3.org/1999/xlink" preserveAspectRatio="xMidYMid">
	<g>
		<path d="M146.302,72.728 C144.551,72.804 143.089,74.092 142.792,75.82 L142.792,75.82 C142.792,75.82 130.76,153.519 129.517,153.519 L129.517,153.519 C128.275,153.519 115.845,95.136 115.845,95.136 L115.845,95.136 C115.479,93.575 114.153,92.422 112.557,92.278 L112.557,92.278 C110.958,92.134 109.449,93.03 108.809,94.504 L108.809,94.504 L96.383,123.153 L89.294,123.153 C87.828,120.091 84.727,117.961 81.105,117.961 L81.105,117.961 C76.077,117.961 72,122.037 72,127.066 L72,127.066 C72,132.094 76.077,136.171 81.105,136.171 L81.105,136.171 C84.882,136.171 88.12,133.871 89.499,130.596 L89.499,130.596 L98.825,130.596 C100.308,130.596 101.648,129.715 102.238,128.355 L102.238,128.355 C102.238,128.355 110.282,107.783 111.161,107.783 L111.161,107.783 C112.04,107.783 126.464,173.127 126.464,173.127 L126.464,173.127 C126.859,174.814 128.362,176 130.086,176 L130.086,176 C131.97,175.945 133.456,174.651 133.756,172.906 L133.756,172.906 C133.756,172.906 146.15,94.1 147.22,94.1 L147.22,94.1 C148.29,94.1 160.723,145.864 160.723,145.864 L160.723,145.864 C161.133,147.434 162.514,148.559 164.133,148.64 L164.133,148.64 C165.735,148.725 167.241,147.751 167.811,146.23 L167.811,146.23 L177.647,119.948 L184.206,130.017 C184.767,125.326 184.643,120.58 183.873,115.784 L183.873,115.784 L179.941,109.63 C179.188,108.435 177.839,107.775 176.412,107.913 L176.412,107.913 C175.007,108.059 173.804,108.988 173.306,110.312 L173.306,110.312 L164.959,132.614 L150.064,75.508 C149.632,73.86 148.135,72.725 146.456,72.725 L146.456,72.725 C146.405,72.725 146.353,72.726 146.302,72.728 L146.302,72.728 Z" fill="#8D8E92"></path>
		<path d="M128,208.3098 C81.77,208.3098 44.293,170.6188 44.293,124.1258 C44.293,77.6318 81.77,39.9408 128,39.9408 C174.23,39.9408 211.707,77.6318 211.707,124.1258 C211.707,170.6188 174.23,208.3098 128,208.3098 M128,0.5348 C57.307,0.5348 0,55.9318 0,124.2678 C0,192.6028 57.307,247.9998 128,247.9998 C198.693,247.9998 256,192.6028 256,124.2678 C256,55.9318 198.693,0.5348 128,0.5348" fill="#C4222F"></path>
	</g>
</svg>
